X:1
T:Title
%%score ( 1 2 ) { 3 | 4 }
L:1/8
Q:1/4=112
M:4/4
K:A
V:1 treble nm="Grand Piano, Soprano"
V:2 treble 
V:3 bass nm="Choir Pad, Myrtle Beach, 76.76 D"
V:4 bass 
V:1
 E2 A2- A/ z/ E C2 | E2 [Ec]2- [Ec][DB] [CA]2 | [CA]2 [FA]2- [FA][DF] [FA]2 | [DF]2 [CE]6 | %4
w: By~Daniel~Brink~towner,~1890 * * * *||||
 [CE]2 [DE]2- [DE][EG] [GB]2 | z2 A4 z2 | [Ec]2 [^DB]2- [DB][EG] [FA]2 | [^DF]2 E6 | %8
w: ||||
 E2 A2- A/ z/ E C2 | E2 [Ec]2- [Ec][DB] [CA]2 | [CE]2 [DF]2 [DG]2 [EA]2 | [FB]2 [^Ec]6 | %12
w: ||||
 [Fc]2 [Ge]2- [Ge][Gd] [Ac]2 | [GB]2 [FA]2 [^EG]2 F2 | [Fd]2 [Ec]2- [Ec][EB] [EA]2 | [DG]2 [CA]6- | %16
w: ||||
 [CA]2 z2 z4 |] %17
w: |
V:2
 x8 | x8 | x8 | x8 | x8 | [EG]2 E2- E-[EB] [Ec]2 | x8 | x8 | x8 | x8 | x8 | x8 | x8 | x8 | x8 | %15
 x8 | x8 |] %17
V:3
 E,2 A,2- A,/ z/ E, C,2 | E,2 A,4[K:treble] E2 | E2 D2- DA, D2 | A,2 A,6 | A,2 G,2- G,B, D2 | %5
 B,2 A,2- A,G, A,2 | A,2 F,2- F,B, B,2 | A,2 G,6 | E,2 A,2- A,/ z/ E, C,2 | E,2 A,4 A,2 | %10
 A,2 A,2 B,2 C2 | B,F, G,6 | A,2 B,2- B,B, A,2 | D2 C2 B,2 A,2 | A,2 A,2- A,D C2 | B,2 A,6- | %16
 A,2 z2 z4 |] %17
V:4
 z8 | z4 z2 A,2 | A,2 D,2- D,D, D,2 | D,2 A,,6 | A,,2 E,2- E,E, E,2 | D,2 C,2- C,B,, A,,2 | %6
 A,,2 B,,2- B,,B,, B,,2 | B,,2 E,6 | z8 | z8 | z2 D,2 B,,2 A,,2 | D,2 C,6 | F,2 E,2- E,E, z2 | %13
 E,2 F,2 C,2 D,2 | D,2 E,2- E,E, E,2 | E,2 A,,6- | A,,2 z2 z4 |] %17

